X:195
T: WILLKOMMEN O SELIGER ABEND
N: B0230
O: Europa, Mitteleuropa, Deutschland
R: Tageszeiten - Lied, Abend
M: 4/4
L: 1/8
K: C
G, | G,2E,F,G,EDC | CB,B,2z2
CA, | A,G,E,G,G,F,D,F, | F,2E,4
G,2 | E2CG,F2DB, | GEC2z2
EC | B,A,FDDCCB, | D2C4z

